symbols/fi/eo1-po1-combined-block.svg

<?xml version="1.0" encoding="UTF-8"?>
<svg xmlns="http://www.w3.org/2000/svg" xmlns:xlink="http://www.w3.org/1999/xlink" width="12.187497" height="15" viewBox="0 0 12.187497 15">
<path fill-rule="evenodd" fill="rgb(0%, 0%, 0%)" fill-opacity="1" stroke-width="0.941832" stroke-linecap="round" stroke-linejoin="miter" stroke="rgb(84.313726%, 84.313726%, 84.313726%)" stroke-opacity="1" stroke-miterlimit="4" d="M -375.609975 309.826932 C -376.334975 308.735265 -386.193312 294.251927 -387.393312 292.451926 C -388.584979 290.643592 -390.601647 289.468591 -392.876647 289.468591 C -396.543315 289.468591 -399.518316 292.535259 -399.518316 296.310261 C -399.518316 300.093595 -399.518316 309.893599 -399.518316 313.676933 C -399.518316 317.451935 -396.543315 320.518603 -392.876647 320.518603 C -389.209979 320.518603 -384.776645 320.518603 -381.109977 320.518603 C -377.443309 320.518603 -374.468308 317.451935 -374.468308 313.676933 C -374.468308 312.251933 -374.884974 310.926932 -375.609975 309.826932 Z M -375.609975 309.826932 " transform="matrix(0.46875, 0, 0, 0.46875, 187.4968, -135.465697)"/>
<path fill-rule="evenodd" fill="rgb(5.098039%, 59.215689%, 38.431373%)" fill-opacity="1" stroke-width="0.040336" stroke-linecap="butt" stroke-linejoin="miter" stroke="rgb(0%, 0%, 0%)" stroke-opacity="1" stroke-miterlimit="4" d="M -378.584976 314.426934 C -378.584976 316.185268 -380.009976 317.610268 -381.76831 317.610268 C -383.518311 317.610268 -384.943311 316.185268 -384.943311 314.426934 C -384.943311 312.6686 -383.518311 311.243599 -381.76831 311.243599 C -380.009976 311.243599 -378.584976 312.6686 -378.584976 314.426934 Z M -378.584976 314.426934 " transform="matrix(0.46875, 0, 0, 0.46875, 187.4968, -135.465697)"/>
</svg>

<?xml version="1.0" encoding="UTF-8" standalone="no"?>
<!-- Created with Inkscape (http://www.inkscape.org/) -->

<svg
   xmlns:dc="http://purl.org/dc/elements/1.1/"
   xmlns:cc="http://creativecommons.org/ns#"
   xmlns:rdf="http://www.w3.org/1999/02/22-rdf-syntax-ns#"
   xmlns:svg="http://www.w3.org/2000/svg"
   xmlns="http://www.w3.org/2000/svg"
   xmlns:sodipodi="http://sodipodi.sourceforge.net/DTD/sodipodi-0.dtd"
   xmlns:inkscape="http://www.inkscape.org/namespaces/inkscape"
   width="26.000002"
   height="32.000011"
   id="svg1901"
   sodipodi:version="0.32"
   inkscape:version="0.91 r13725"
   sodipodi:docname="eo1-po1-combined-block.svg"
   version="1.0"
   inkscape:output_extension="org.inkscape.output.svg.inkscape"
   inkscape:export-filename="/home/michael/Entwicklung/OpenRailwayMap/styles/icons/fi/eo1-po1-combined-block-30.png"
   inkscape:export-xdpi="83.07692"
   inkscape:export-ydpi="83.07692">
  <defs
     id="defs1903">
    <linearGradient
       id="linearGradient7180">
      <stop
         style="stop-color:#17ff07;stop-opacity:0.47457626;"
         offset="0"
         id="stop7182" />
      <stop
         style="stop-color:#31ff07;stop-opacity:0;"
         offset="1"
         id="stop7184" />
    </linearGradient>
    <linearGradient
       id="linearGradient3510">
      <stop
         style="stop-color:#434343;stop-opacity:1;"
         offset="0"
         id="stop3512" />
      <stop
         id="stop3518"
         offset="0.5"
         style="stop-color:#242424;stop-opacity:1;" />
      <stop
         style="stop-color:#313131;stop-opacity:1;"
         offset="1"
         id="stop3514" />
    </linearGradient>
    <linearGradient
       id="linearGradient3566">
      <stop
         id="stop3568"
         offset="0"
         style="stop-color:#000000;stop-opacity:0;" />
      <stop
         style="stop-color:#000000;stop-opacity:0;"
         offset="0.63157892"
         id="stop3572" />
      <stop
         id="stop3570"
         offset="1"
         style="stop-color:#000000;stop-opacity:0.73728812;" />
    </linearGradient>
    <linearGradient
       id="linearGradient3420">
      <stop
         style="stop-color:#20fa32;stop-opacity:1;"
         offset="0"
         id="stop3422" />
      <stop
         style="stop-color:#62fc77;stop-opacity:0;"
         offset="1"
         id="stop3424" />
    </linearGradient>
  </defs>
  <sodipodi:namedview
     id="base"
     pagecolor="#ffffff"
     bordercolor="#666666"
     borderopacity="1.0"
     inkscape:pageopacity="0.0"
     inkscape:pageshadow="2"
     inkscape:zoom="7.9195959"
     inkscape:cx="18.022341"
     inkscape:cy="15.132435"
     inkscape:document-units="px"
     inkscape:current-layer="layer1"
     gridtolerance="10000"
     inkscape:window-width="1366"
     inkscape:window-height="708"
     inkscape:window-x="0"
     inkscape:window-y="31"
     showgrid="false"
     fit-margin-top="0"
     fit-margin-left="0"
     fit-margin-right="0"
     fit-margin-bottom="0"
     inkscape:window-maximized="1" />
  <metadata
     id="metadata1906">
    <rdf:RDF>
      <cc:Work
         rdf:about="">
        <dc:format>image/svg+xml</dc:format>
        <dc:type
           rdf:resource="http://purl.org/dc/dcmitype/StillImage" />
        <dc:title />
      </cc:Work>
    </rdf:RDF>
  </metadata>
  <g
     inkscape:label="Taso 1"
     inkscape:groupmode="layer"
     id="layer1"
     style="opacity:1"
     transform="translate(399.99332,-288.99359)">
    <path
       id="path4944"
       style="opacity:1;fill:#000000;fill-opacity:1;fill-rule:evenodd;stroke:#d7d7d7;stroke-width:0.94183201;stroke-linecap:round;stroke-linejoin:miter;stroke-miterlimit:4;stroke-dasharray:none;stroke-dashoffset:0;stroke-opacity:1"
       d="m -375.61008,309.83014 c -0.72314,-1.09619 -10.58323,-15.58043 -11.78085,-17.38177 -1.19761,-1.80133 -3.20861,-2.98386 -5.48598,-2.98386 -3.66831,0 -6.64549,3.06813 -6.64549,6.84851 0,3.78036 0,13.58079 0,17.36116 0,3.78038 2.97718,6.84851 6.64549,6.84851 3.66831,0 8.09887,0 11.76718,0 3.66832,0 6.6455,-3.06813 6.6455,-6.84851 0,-1.42449 -0.42272,-2.74785 -1.14585,-3.84404 z"
       sodipodi:nodetypes="ccssssccs"
       inkscape:connector-curvature="0" />
    <circle
       r="3.1817091"
       cy="314.42487"
       cx="-381.76468"
       style="opacity:1;fill:#0d9762;fill-opacity:1;fill-rule:evenodd;stroke:#000000;stroke-width:0.04033598;stroke-linecap:butt;stroke-linejoin:miter;stroke-miterlimit:4;stroke-dasharray:none;stroke-dashoffset:0;stroke-opacity:1"
       id="path4998" />
  </g>
</svg>
